public/assets/dock.svg

<?xml version="1.0" encoding="UTF-8" standalone="no"?>
<svg
   id="svg"
   width="349.82098"
   height="400.01544"
   viewBox="0 0 349.82098 400.01544"
   version="1.1"
   sodipodi:docname="dock.svg"
   inkscape:version="1.4 (e7c3feb1, 2024-10-09)"
   xmlns:inkscape="http://www.inkscape.org/namespaces/inkscape"
   xmlns:sodipodi="http://sodipodi.sourceforge.net/DTD/sodipodi-0.dtd"
   xmlns="http://www.w3.org/2000/svg"
   xmlns:svg="http://www.w3.org/2000/svg">
  <defs
     id="defs1" />
  <sodipodi:namedview
     id="namedview1"
     pagecolor="#ffffff"
     bordercolor="#000000"
     borderopacity="0.25"
     inkscape:showpageshadow="2"
     inkscape:pageopacity="0.0"
     inkscape:pagecheckerboard="0"
     inkscape:deskcolor="#d1d1d1"
     showgrid="false"
     inkscape:zoom="1.3775"
     inkscape:cx="175.3176"
     inkscape:cy="200"
     inkscape:window-width="1232"
     inkscape:window-height="770"
     inkscape:window-x="49"
     inkscape:window-y="34"
     inkscape:window-maximized="1"
     inkscape:current-layer="svg" />
  <g
     id="svgg"
     transform="translate(-25,-0.31775)">
    <path
       id="path0"
       d="M 153.014,12.5 C 150.375,19.375 139.492,25 128.829,25 104.347,25 25,73.715 25,88.746 25,97.124 39.907,100 83.333,100 c 64.762,0 74.502,10.882 41.337,46.185 C 95.723,176.997 92.723,225 119.743,225 c 21.643,0 21.924,0.768 21.924,59.901 0,48.403 3.599,65.188 18.75,87.443 17.938,26.35 39.583,36.916 39.583,19.323 0,-4.584 6.75,-8.334 15,-8.334 28.015,0 35,-17.795 35,-89.166 V 225 h 26.09 c 33.356,0 30.265,-50.223 -4.975,-80.85 C 232.488,110.58 242.405,100 312.5,100 389.051,100 394.033,88.141 333.208,50.715 297.793,28.924 283.17,25 237.375,25 c -42.482,0 -54.042,-2.674 -54.042,-12.5 0,-16.243 -24.086,-16.243 -30.319,0 m 130.319,50 C 302.225,73.3 294.46,74.409 200,74.409 105.54,74.409 97.775,73.3 116.667,62.5 c 27.91,-15.955 138.756,-15.955 166.666,0 M 256.302,181.25 268.7,200 h -68.175 c -69.729,0 -71.507,-1.175 -47.884,-31.639 14.492,-18.689 88.898,-9.438 103.661,12.889"
       stroke="none"
       fill="#000000"
       fill-rule="evenodd" />
  </g>
</svg>

<svg id="svg" xmlns="http://www.w3.org/2000/svg" xmlns:xlink="http://www.w3.org/1999/xlink" width="400" height="400" viewBox="0, 0, 400,400"><g id="svgg"><path id="path0" d="M153.014 12.500 C 150.375 19.375,139.492 25.000,128.829 25.000 C 104.347 25.000,25.000 73.715,25.000 88.746 C 25.000 97.124,39.907 100.000,83.333 100.000 C 148.095 100.000,157.835 110.882,124.670 146.185 C 95.723 176.997,92.723 225.000,119.743 225.000 C 141.386 225.000,141.667 225.768,141.667 284.901 C 141.667 333.304,145.266 350.089,160.417 372.344 C 178.355 398.694,200.000 409.260,200.000 391.667 C 200.000 387.083,206.750 383.333,215.000 383.333 C 243.015 383.333,250.000 365.538,250.000 294.167 L 250.000 225.000 276.090 225.000 C 309.446 225.000,306.355 174.777,271.115 144.150 C 232.488 110.580,242.405 100.000,312.500 100.000 C 389.051 100.000,394.033 88.141,333.208 50.715 C 297.793 28.924,283.170 25.000,237.375 25.000 C 194.893 25.000,183.333 22.326,183.333 12.500 C 183.333 -3.743,159.247 -3.743,153.014 12.500 M283.333 62.500 C 302.225 73.300,294.460 74.409,200.000 74.409 C 105.540 74.409,97.775 73.300,116.667 62.500 C 144.577 46.545,255.423 46.545,283.333 62.500 M256.302 181.250 L 268.700 200.000 200.525 200.000 C 130.796 200.000,129.018 198.825,152.641 168.361 C 167.133 149.672,241.539 158.923,256.302 181.250 " stroke="none" fill="#000000" fill-rule="evenodd"></path></g></svg>
